X:1
T:James Gibb editions
T:Da che si part' il sol - Gorzanis
%%score [ 1 2 3 ]
L:1/8
Q:1/4=140
M:2/2
K:C
V:1 treble-8 nm="Tenor I" snm="T I"
V:2 treble-8 nm="Tenor II" snm="T II"
V:3 bass nm="Bass" snm="B"
V:1
"^Da che si part' il sol""^Giacomo Gorzanis\n(1520-79)" A8 | c6 d2 | e4 c4 | e4 e4 | d4 d4 | %5
w: Da|che si|par- t'il|sol, da|che si|
 c4 c4 | B4 e4 | d2 c2 (c2 B2) |[M:2/2][K:treble-8] c4 g4 | f2 e4 d2 | e4 e4 | d2 c2 c2 B2 | %12
w: par- t'il|sol tut-|ta la not\- *|te, da|che si par-|t'il sol,|da che si par-|
 c4 e4 | d2 B2 c4 | B4 z2 A2 | A2 A2 c4 | B4 z2 e2 | d4 z2 c2 | B4 e2 e2 | f2 f2 e2 e2 | d4 d2 e2 | %21
w: t'il sol|tut- ta not-|te, Piag'|e sos- pi-|ro, sos-|pir', sos-|pi- ro e|poi ve- nut' il|gior- no Mes-|
 d6 c2 | B4 z2 A2 | A2 c2 B2 A2 | B8 | A4 e4 | c4 d4 | e4 g4 | f4 d4 | e4 z2[Q:1/4=139] e2 | %30
w: chi- no|me non|vegg' il vi- so~~a-|dor-|no, mes-|chi- no|me, mes-|chi- no|me non|
[Q:1/4=137] c2[Q:1/4=135] d2[Q:1/4=134] B2[Q:1/4=132] A2 |[Q:1/4=128] B8 |[Q:1/4=122] A8 |] %33
w: vegg' il vi- so~~a-|dor-|no.|
V:2
 z8 | (A6 ^F2) | E4 A4 | G4 A4 | A4 ^G4 | A4 A4 | ^G4 c4 | A2 G4 ^F2 |[M:2/2][K:treble-8] G4 e4 | %9
w: |Da *|che si|par- t'il|sol, si|par- t'il|sol tut-|ta la not-|te, da|
 d2 B2 A4 | B4 c4 | A2 G4 ^F2 | G4 c4 | B2 G2 A4 | ^G4 z2 ^F2 | ^F2 F2 A4 | ^G4 z2 c2 | B4 z2 A2 | %18
w: che si par-|t'il sol,|da che par-|t'il sol|tut- ta not-|te, Piag'|e sos- pi-|ro, sos-|pir', sos-|
 ^G4 c2 c2 | A2 B2 c2 c2 | B4 B2 c2 | B6 A2 | ^G4 z2 E2 | ^F2 A2 ^G2 A2 | (A4 ^G4) | A4 c4 | %26
w: pi- ro e|poi ve- nut' il|gior- no Mes-|chi- no|me non|vegg' il vi- so~a-|dor\- *|no, mes-|
 A4 B4 | c4 e4 | A4 B4 | c4 z2 c2 | A2 A2 ^G2 A2 | (A4 ^G4) | A8 |] %33
w: chi- no|me, mes-|chi- no|me non|vegg' il vi- so~~a-|dor\- *|no.|
V:3
 z8 | z8 | z4 A,,4 | C,4 C,4 | B,,4 B,,4 | (A,,2 B,,2 C,2 D,2 | E,4) C,4 | F,2 E,2 D,4 | %8
w: ||Da|che si|par- t'il|sol * * *|* tut-|ta la not-|
[M:2/2] C,4 C,4 | D,2 E,2 =F,4 | E,4 C,4 | F,2 E,2 D,4 | C,4 C,4 | G,2 G,,2 A,,4 | E,4 z2 D,2 | %15
w: te, da|che si par-|t'il sol,|da che par-|t'il sol|tut- ta not-|te, Piag'|
 D,2 D,2 A,,4 | E,4 z2 C,2 | G,4 z2 F,2 | E,4 C,2 C,2 | D,2 D,2 C,2 C,2 | G,4 G,2 C,2 | G,6 F,2 | %22
w: e sos- pi-|ro, sos-|pir', sos-|pi- ro e|poi ve- nut' il|gior- no Mes-|chi- no|
 (E,2 D,2 ^C,2) C,2 | D,2 A,,2 E,2 F,2 | (E,2 D,2 E,4) | A,,4 C,4 | F,4 G,4 | C,4 C,4 | D,4 G,,4 | %29
w: me * * non|vegg' il vi- so~~a-|dor\- * *|no, mes-|chi- no|me, mes-|chi- no|
 C,4 z2 C,2 | F,2 D,2 E,2 F,2 | (E,2 D,2 E,4) | A,,8 |] %33
w: me non|vegg' il vi- so~~a-|dor\- * *|no.|

